X: 15358
T: Glamorganshire, The
R: hornpipe
M: 4/4
K: Dmajor
AG|FDFA d2AG|FDFA B2AG|FDFA d2fg|afdf ecBA|
FDFA d2cd|BGED CEFG|Adcd BGEC|D2D2 D2:|
|:d2|cdef g2fe|defg a2fa|ageg gfdf|edcB ABAG|
FDFA d2cd|BGED CEFG|Adcd BGEC|D2D2 D2:|

